plasmoid/contents/icons/34.svg

<?xml version="1.0" encoding="utf-8"?>
<!-- Generator: Adobe Illustrator 15.1.0, SVG Export Plug-In . SVG Version: 6.00 Build 0)  -->
<!DOCTYPE svg PUBLIC "-//W3C//DTD SVG 1.1//EN" "http://www.w3.org/Graphics/SVG/1.1/DTD/svg11.dtd">
<svg version="1.1" id="Layer_1"
	xmlns="http://www.w3.org/2000/svg"
	xmlns:xlink="http://www.w3.org/1999/xlink" x="0px" y="0px" width="512px" height="512px" viewBox="0 0 512 512" enable-background="new 0 0 512 512" xml:space="preserve">
	<g>
		<g>
			<style id="current-color-scheme" />
			<path class="ColorScheme-Text" id="hint-apply-color-scheme" fill="currentColor" d="M208,64c8.833,0,16-7.167,16-16V16c0-8.833-7.167-16-16-16s-16,7.167-16,16v32
			C192,56.833,199.167,64,208,64z M332.438,106.167l22.625-22.625c6.249-6.25,6.249-16.375,0-22.625
			c-6.25-6.25-16.375-6.25-22.625,0l-22.625,22.625c-6.25,6.25-6.25,16.375,0,22.625
			C316.062,112.417,326.188,112.417,332.438,106.167z M16,224h32c8.833,0,16-7.167,16-16s-7.167-16-16-16H16
			c-8.833,0-16,7.167-16,16S7.167,224,16,224z M352,208c0,8.833,7.167,16,16,16h32c8.833,0,16-7.167,16-16s-7.167-16-16-16h-32
			C359.167,192,352,199.167,352,208z M83.541,106.167c6.251,6.25,16.376,6.25,22.625,0c6.251-6.25,6.251-16.375,0-22.625
			L83.541,60.917c-6.25-6.25-16.374-6.25-22.625,0c-6.25,6.25-6.25,16.375,0,22.625L83.541,106.167z M400,256
			c-5.312,0-10.562,0.375-15.792,1.125c-16.771-22.875-39.124-40.333-64.458-51.5C318.459,145,268.938,96,208,96
			c-61.75,0-112,50.25-112,112c0,17.438,4.334,33.75,11.5,48.438C47.875,258.875,0,307.812,0,368c0,61.75,50.25,112,112,112
			c13.688,0,27.084-2.5,39.709-7.333C180.666,497.917,217.5,512,256,512c38.542,0,75.333-14.083,104.291-39.333
			C372.916,477.5,386.312,480,400,480c61.75,0,112-50.25,112-112S461.75,256,400,256z M208,128c39.812,0,72.562,29.167,78.708,67.25
			c-10.021-2-20.249-3.25-30.708-3.25c-45.938,0-88.5,19.812-118.375,53.25C131.688,234.083,128,221.542,128,208
			C128,163.812,163.812,128,208,128z M400,448c-17.125,0-32.916-5.5-45.938-14.667C330.584,461.625,295.624,480,256,480
			c-39.625,0-74.584-18.375-98.062-46.667C144.938,442.5,129.125,448,112,448c-44.188,0-80-35.812-80-80s35.812-80,80-80
			c7.75,0,15.062,1.458,22.125,3.541c2.812,0.792,5.667,1.417,8.312,2.521c4.375-8.562,9.875-16.396,15.979-23.75
			C181.792,242.188,216.562,224,256,224c10.125,0,19.834,1.458,29.25,3.709c10.562,2.499,20.542,6.291,29.834,11.291
			c23.291,12.375,42.416,31.542,54.457,55.063C378.938,290.188,389.209,288,400,288c44.188,0,80,35.812,80,80S444.188,448,400,448z" />
		</g>
	</g>
</svg>

<?xml version="1.0" encoding="UTF-8" standalone="no"?>
<svg
   xmlns:dc="http://purl.org/dc/elements/1.1/"
   xmlns:cc="http://creativecommons.org/ns#"
   xmlns:rdf="http://www.w3.org/1999/02/22-rdf-syntax-ns#"
   xmlns:svg="http://www.w3.org/2000/svg"
   xmlns="http://www.w3.org/2000/svg"
   xmlns:sodipodi="http://sodipodi.sourceforge.net/DTD/sodipodi-0.dtd"
   xmlns:inkscape="http://www.inkscape.org/namespaces/inkscape"
   version="1.1"
   id="Layer_1"
   x="0px"
   y="0px"
   width="552"
   height="552"
   viewBox="0 0 552 552"
   enable-background="new 0 0 512 512"
   xml:space="preserve"
   sodipodi:docname="34.svg"><metadata
   id="metadata13"><rdf:RDF><cc:Work
       rdf:about=""><dc:format>image/svg+xml</dc:format><dc:type
         rdf:resource="http://purl.org/dc/dcmitype/StillImage" /></cc:Work></rdf:RDF></metadata><defs
   id="defs11" /><sodipodi:namedview
   pagecolor="#ffffff"
   bordercolor="#666666"
   borderopacity="1"
   objecttolerance="10"
   gridtolerance="10"
   guidetolerance="10"
   inkscape:pageopacity="0"
   inkscape:pageshadow="2"
   inkscape:window-width="640"
   inkscape:window-height="480"
   id="namedview9"
   fit-margin-top="20"
   fit-margin-left="20"
   fit-margin-right="20"
   fit-margin-bottom="20" />
	<g
   id="g6"
   transform="translate(20,20)">
		<g
   id="g4">
			<style
   id="current-color-scheme" />
			<path
   class="ColorScheme-Text"
   id="hint-apply-color-scheme"
   fill="currentColor"
   d="m 208,64 c 8.833,0 16,-7.167 16,-16 V 16 C 224,7.167 216.833,0 208,0 199.167,0 192,7.167 192,16 v 32 c 0,8.833 7.167,16 16,16 z m 124.438,42.167 22.625,-22.625 c 6.249,-6.25 6.249,-16.375 0,-22.625 -6.25,-6.25 -16.375,-6.25 -22.625,0 l -22.625,22.625 c -6.25,6.25 -6.25,16.375 0,22.625 6.249,6.25 16.375,6.25 22.625,0 z M 16,224 h 32 c 8.833,0 16,-7.167 16,-16 0,-8.833 -7.167,-16 -16,-16 H 16 c -8.833,0 -16,7.167 -16,16 0,8.833 7.167,16 16,16 z m 336,-16 c 0,8.833 7.167,16 16,16 h 32 c 8.833,0 16,-7.167 16,-16 0,-8.833 -7.167,-16 -16,-16 h -32 c -8.833,0 -16,7.167 -16,16 z M 83.541,106.167 c 6.251,6.25 16.376,6.25 22.625,0 6.251,-6.25 6.251,-16.375 0,-22.625 L 83.541,60.917 c -6.25,-6.25 -16.374,-6.25 -22.625,0 -6.25,6.25 -6.25,16.375 0,22.625 z M 400,256 c -5.312,0 -10.562,0.375 -15.792,1.125 C 367.437,234.25 345.084,216.792 319.75,205.625 318.459,145 268.938,96 208,96 146.25,96 96,146.25 96,208 c 0,17.438 4.334,33.75 11.5,48.438 C 47.875,258.875 0,307.812 0,368 c 0,61.75 50.25,112 112,112 13.688,0 27.084,-2.5 39.709,-7.333 C 180.666,497.917 217.5,512 256,512 294.542,512 331.333,497.917 360.291,472.667 372.916,477.5 386.312,480 400,480 461.75,480 512,429.75 512,368 512,306.25 461.75,256 400,256 Z M 208,128 c 39.812,0 72.562,29.167 78.708,67.25 C 276.687,193.25 266.459,192 256,192 210.062,192 167.5,211.812 137.625,245.25 131.688,234.083 128,221.542 128,208 c 0,-44.188 35.812,-80 80,-80 z m 192,320 c -17.125,0 -32.916,-5.5 -45.938,-14.667 C 330.584,461.625 295.624,480 256,480 216.375,480 181.416,461.625 157.938,433.333 144.938,442.5 129.125,448 112,448 67.812,448 32,412.188 32,368 c 0,-44.188 35.812,-80 80,-80 7.75,0 15.062,1.458 22.125,3.541 2.812,0.792 5.667,1.417 8.312,2.521 4.375,-8.562 9.875,-16.396 15.979,-23.75 C 181.792,242.188 216.562,224 256,224 c 10.125,0 19.834,1.458 29.25,3.709 10.562,2.499 20.542,6.291 29.834,11.291 23.291,12.375 42.416,31.542 54.457,55.063 C 378.938,290.188 389.209,288 400,288 c 44.188,0 80,35.812 80,80 0,44.188 -35.812,80 -80,80 z" />
		</g>
	</g>
</svg>
